core/assets/icons/virtual_number.svg

<svg width="24" height="24" viewBox="0 0 24 24" xmlns="http://www.w3.org/2000/svg"><g id="virtual-number"><path id="Vector" d="M18.2205 20H6.22046V18H4.22046V21C4.22046 21.2652 4.32582 21.5196 4.51335 21.7071C4.70089 21.8946 4.95524 22 5.22046 22H19.2205C19.4857 22 19.74 21.8946 19.9276 21.7071C20.1151 21.5196 20.2205 21.2652 20.2205 21V18H18.2205V20Z"/><path id="Vector_2" d="M14.3925 4L18.2205 7.828V9H20.2205V7.414C20.2204 7.14881 20.115 6.89449 19.9275 6.707L15.2205 2H5.22046C4.95524 2 4.70089 2.10536 4.51335 2.29289C4.32582 2.48043 4.22046 2.73478 4.22046 3V9H6.22046V4H14.3925Z"/><path id="Vector_3" d="M22.6562 10.7934C22.4504 10.3122 21.9427 10 21.3841 10H17.6104C16.9447 10 16.2833 10.1073 15.6516 10.3178L13.9588 10.8821C13.3272 11.0926 12.6658 11.1999 12 11.1999C11.3342 11.1999 10.6728 11.0926 10.0411 10.8821L8.34832 10.3178C7.71667 10.1073 7.0553 10 6.38952 10H2.61588C2.05726 10 1.54953 10.3122 1.34372 10.7934C0.881113 11.875 1.80793 15.5266 2.67579 16.3477C3.11138 16.7598 3.6971 17 4.32069 17H8.73659C9.69718 17 10.5521 16.3908 10.8658 14.4829C11.0519 13.9441 11.5259 13.6748 11.9999 13.6748C12.474 13.6748 12.9481 13.9441 13.1342 14.4829C13.4479 16.3908 14.3028 17 15.2633 17H19.6792C20.3028 17 20.8886 16.7598 21.3241 16.3477C22.192 15.5266 23.1188 11.875 22.6562 10.7934Z"/></g></svg>

<svg xmlns="http://www.w3.org/2000/svg" width="24" height="24" fill="none"><g fill="#191C22"><path d="M18.22 20h-12v-2h-2v3a1 1 0 0 0 1 1h14a1 1 0 0 0 1-1v-3h-2v2ZM14.393 4l3.828 3.828V9h2V7.414a1 1 0 0 0-.294-.707L15.22 2h-10a1 1 0 0 0-1 1v6h2V4h8.172ZM22.656 10.793c-.206-.48-.713-.793-1.272-.793H17.61c-.665 0-1.327.107-1.958.318l-1.693.564a6.195 6.195 0 0 1-3.918 0l-1.693-.564A6.195 6.195 0 0 0 6.39 10H2.616c-.559 0-1.066.312-1.272.793-.463 1.082.464 4.734 1.332 5.555A2.392 2.392 0 0 0 4.32 17h4.416c.96 0 1.815-.61 2.129-2.517.186-.539.66-.808 1.134-.808.474 0 .948.27 1.134.808.314 1.908 1.169 2.517 2.13 2.517h4.415c.624 0 1.21-.24 1.645-.652.868-.821 1.795-4.473 1.332-5.555Z"/></g></svg>
